!!!!SEGMENT: Snf0241-Quid_vitam_sine_te--Concentus.krn
!!!id: Snf0241
!!!AGN: Motet
!!!voices: 4
!!!COM: Ludwig Senfl
!!!SMS: Concentus
!!!OTL: Quid vitam sine te (Concentus)
**kern	**text	**kern	**text	**kern	**text	**kern	**text
*part4	*part4	*part3	*part3	*part2	*part2	*part1	*part1
*staff4	*staff4	*staff3	*staff3	*staff2	*staff2	*staff1	*staff1
*I"Bassus	*	*I"Tenor	*	*I"Altus	*	*I"Superius	*
*I'B	*	*I'T	*	*I'A	*	*I'S	*
*clefF4	*	*clefGv2	*	*clefGv2	*	*clefG2	*
*	*	*	*	*	*	*	*
*k[]	*	*k[]	*	*k[]	*	*k[]	*
*	*	*	*	*	*	*	*
*M2/1	*	*M2/1	*	*M2/1	*	*M2/1	*
*met(C|)	*	*met(C|)	*	*met(C|)	*	*met(C|)	*
!!section: Prima pars: Quid vitam sine te
!!!OMD: Prima pars: Quid vitam sine te
=1	=1	=1	=1	=1	=1	=1	=1
1r	.	1E	Quid	0e	Quid	0r	.
1E	Quid	2.G	vi-	.	.	.	.
.	.	4A	.	.	.	.	.
=2	=2	=2	=2	=2	=2	=2	=2
2G	vi-	2B	.	0d	vi-	0r	.
2F	.	1c	.	.	.	.	.
1G	.	.	.	.	.	.	.
.	.	2B	.	.	.	.	.
=3	=3	=3	=3	=3	=3	=3	=3
1C	-tam,	2c	-tam,	0c	-tam	0e	Quid
.	.	1G	quid	.	.	.	.
1C	quid	.	.	.	.	.	.
.	.	[2A	vi-	.	.	.	.
=4	=4	=4	=4	=4	=4	=4	=4
0D	vi-	4A]	.	1f	si-	0d	vi-
.	.	4G	.	.	.	.	.
.	.	4F	.	.	.	.	.
.	.	4E	.	.	.	.	.
.	.	2.F	.	1f	-ne	.	.
.	.	4G	.	.	.	.	.
=5	=5	=5	=5	=5	=5	=5	=5
0AA	-tam	2A	.	1e	te,	0c	-tam
.	.	2E	-tam	.	.	.	.
.	.	2r	.	2r	.	.	.
.	.	[2A	si-	2c	si-	.	.
=6	=6	=6	=6	=6	=6	=6	=6
1D	si-	4A]	.	2F	-ne	1f	si-
.	.	4G	.	.	.	.	.
.	.	4F	.	2.A	te,	.	.
.	.	4E	.	.	.	.	.
1D	-ne	2F	.	.	.	1f	-ne
.	.	.	.	4G	.	.	.
.	.	2F	-ne	4A	.	.	.
.	.	.	.	4B	.	.	.
=7	=7	=7	=7	=7	=7	=7	=7
0C	te,	1G	te,	1c	.	0e	te,
.	.	2r	.	2r	.	.	.
.	.	[2c	con-	2e	con-	.	.
=8	=8	=8	=8	=8	=8	=8	=8
0F	con-	4c]	.	2A	.	0a	con-
.	.	4B	.	.	.	.	.
.	.	4A	.	2.c	-iunx	.	.
.	.	4G	.	.	.	.	.
.	.	2.A	.	.	.	.	.
.	.	.	.	4B	.	.	.
.	.	.	.	4c	.	.	.
.	.	4B	.	4d	.	.	.
=9	=9	=9	=9	=9	=9	=9	=9
0E	-iunx	1c	.	1e	.	0g	-iunx
.	.	1B	-iunx	2r	.	.	.
.	.	.	.	[2e	ca-	.	.
=10	=10	=10	=10	=10	=10	=10	=10
0E	ca-	2r	.	2e]	.	0g	ca-
.	.	1B	ca-	1e	-stis-	.	.
.	.	[2e	-stis-	2g	-si-	.	.
=11	=11	=11	=11	=11	=11	=11	=11
0A	-stis-	4e]	.	2c	-ma,	0cc	-stis-
.	.	4d	.	.	.	.	.
.	.	4c	.	2.e	ser-	.	.
.	.	4B	.	.	.	.	.
.	.	1c	.	.	.	.	.
.	.	.	.	4d	.	.	.
.	.	.	.	4e	.	.	.
.	.	.	.	4f	.	.	.
=12	=12	=12	=12	=12	=12	=12	=12
1G	-si-	2d	-si-	2g	.	1b	-si-
.	.	2B	-ma,	2d	.	.	.
1E	-ma,	2r	.	[1e	.	1g	-ma,
.	.	[2c	ser-	.	.	.	.
=13	=13	=13	=13	=13	=13	=13	=13
0F	ser-	4c]	.	2e]	.	0a	ser-
.	.	4B	.	.	.	.	.
.	.	4A	.	4d	.	.	.
.	.	4G	.	4c	.	.	.
.	.	1A	.	1d	.	.	.
=14	=14	=14	=14	=14	=14	=14	=14
[0E	-vo,	2B	.	0e	-vo,	[0g	-vo,
.	.	2c	.	.	.	.	.
.	.	2B	.	.	.	.	.
.	.	[2c	-vo,	.	.	.	.
=15	=15	=15	=15	=15	=15	=15	=15
0E]	.	2c]	.	1r	.	0g]	.
.	.	4B	.	.	.	.	.
.	.	4A	.	.	.	.	.
.	.	1B	.	1e	cum	.	.
=16	=16	=16	=16	=16	=16	=16	=16
0r	.	0r	.	2f	mi-	1r	.
.	.	.	.	2f	-hi	.	.
.	.	.	.	1g	lux	1b	cum
=17	=17	=17	=17	=17	=17	=17	=17
0r	.	0r	.	2f	.	2cc	mi-
.	.	.	.	2e	.	2cc	-hi
.	.	.	.	1d	.	1dd	lux
=18	=18	=18	=18	=18	=18	=18	=18
0r	.	0r	.	1r	.	2cc	si-
.	.	.	.	.	.	2b	-ne
.	.	.	.	1f	si-	2a	te
.	.	.	.	.	.	[2cc	gra-
=19	=19	=19	=19	=19	=19	=19	=19
0r	.	0r	.	2e	-ne	2cc]	.
.	.	.	.	2d	te	2b	-ta
.	.	.	.	1f	gra-	2a	nec
.	.	.	.	.	.	2cc	es-
=20	=20	=20	=20	=20	=20	=20	=20
0r	.	0r	.	2e	-ta	2cc	-se
.	.	.	.	2d	nec	2b	que-
.	.	.	.	2.e	es-	4g	.
.	.	.	.	.	.	4a	.
.	.	.	.	.	.	4b	.
.	.	.	.	4c	.	4cc	.
=21	=21	=21	=21	=21	=21	=21	=21
1r	.	0r	.	2d	.	4b	.
.	.	.	.	.	.	4a	.
.	.	.	.	2A	.	1a	.
1E	cum	.	.	1B	.	.	.
.	.	.	.	.	.	2g#i	.
=22	=22	=22	=22	=22	=22	=22	=22
2F	mi-	1r	.	2A	-se	1a	-at,
2F	-hi	.	.	2.d	que-	.	.
1G	lux	1B	cum	.	.	2r	.
.	.	.	.	4c	.	.	.
.	.	.	.	2B	.	2d	gra-
=23	=23	=23	=23	=23	=23	=23	=23
2F	si-	2c	mi-	2A	.	4e	.
.	.	.	.	.	.	4f	.
2E	-ne	2c	-hi	2G	.	4g	.
.	.	.	.	.	.	4e	.
1D	te	1d	lux	1A	-at,	4f	.
.	.	.	.	.	.	4g	.
.	.	.	.	.	.	[2a	.
=24	=24	=24	=24	=24	=24	=24	=24
1r	.	2c	si-	2r	.	2a]	.
.	.	2B	-ne	2d	gra-	2g#i	.
1F	gra-	2A	te	2c	.	1a	-ta
.	.	[2c	gra-	2A	-ta	.	.
=25	=25	=25	=25	=25	=25	=25	=25
2E	-ta	2c]	.	2G	nec	0r	.
2D	nec	2B	-ta	2d	es-	.	.
1F	es-	2A	nec	2c	-se	.	.
.	.	[2c	es-	2A	que-	.	.
=26	=26	=26	=26	=26	=26	=26	=26
2E	-se	2c]	.	2G	.	1r	.
2D	.	2B	-se	4d	.	.	.
.	.	.	.	4c	.	.	.
2.E	que-	4G	que-	4B	.	2r	.
.	.	4A	.	4A	.	.	.
.	.	4B	.	4G	.	2e	nec
4C	.	4c	.	4E	.	.	.
=27	=27	=27	=27	=27	=27	=27	=27
2D	.	4B	.	2F	.	2d	es-
.	.	4A	.	.	.	.	.
2AA	.	1A	.	1E	.	2c	-se
1BB	.	.	.	.	.	1d	que-
.	.	2G#i	.	2D	.	.	.
=28	=28	=28	=28	=28	=28	=28	=28
1AA	-at?	1A	-at?	1E	-at?	1c	-at?
1r	.	1r	.	1r	.	1r	.
=29	=29	=29	=29	=29	=29	=29	=29
0AA	Li-	0A	Li-	0e	Li-	0c	Li-
=30	=30	=30	=30	=30	=30	=30	=30
0D	-qui-	0A	-qui-	0d	-qui-	0f	-qui-
=31	=31	=31	=31	=31	=31	=31	=31
0AA	-sti	0A	-sti	0c	-sti	0e	-sti
=32	=32	=32	=32	=32	=32	=32	=32
1D	mi-	1F	mi-	1A	mi-	1d	mi-
1D	-se-	1F	-se-	1B	-se-	1d	-se-
=33	=33	=33	=33	=33	=33	=33	=33
0C	-ro	0G	-ro	1c	-ro	0e	-ro
.	.	.	.	2r	.	.	.
.	.	.	.	2c	la-	.	.
=34	=34	=34	=34	=34	=34	=34	=34
1D	la-	1F	la-	2B	.	1d	la-
.	.	.	.	1A	.	.	.
1BB	-cri-	1D	-cri-	.	.	1d	-cri-
.	.	.	.	2G#i	-cri-	.	.
=35	=35	=35	=35	=35	=35	=35	=35
0AA	-mas	1E	-mas	0A	-mas	0c	-mas
.	.	2r	.	.	.	.	.
.	.	2E	ge-	.	.	.	.
=36	=36	=36	=36	=36	=36	=36	=36
1AA	ge-	2F	-mi-	1A	ge-	1c	ge-
.	.	1E	-tus-	.	.	.	.
1AA	-mi-	.	.	1A	-mi-	1c	-mi-
.	.	4D	.	.	.	.	.
.	.	4C	.	.	.	.	.
=37	=37	=37	=37	=37	=37	=37	=37
0GG	-tus-	0G	-que	0B	-tus-	0d	-tus-
=38	=38	=38	=38	=38	=38	=38	=38
1FF	-que	1A	per-	1c	-que	1f	-que
1C	per-	2G	-en-	2c	per-	2e	per-
.	.	[2A	.	[2c	-en-	[2e	-en-
=39	=39	=39	=39	=39	=39	=39	=39
0D	-en-	4A]	.	2c]	.	2e]	.
.	.	4G	.	.	.	.	.
.	.	4F	.	4B	.	4d	.
.	.	4E	.	4A	.	4c	.
.	.	1F	.	1B	.	1d	.
=40	=40	=40	=40	=40	=40	=40	=40
0C	.	2G	.	0c	-nes,	[0e	-nes,
.	.	1A	.	.	.	.	.
.	.	2G	.	.	.	.	.
=41	=41	=41	=41	=41	=41	=41	=41
0AA	-nes,	0A	-nes,	1r	.	0e]	.
.	.	.	.	1c	li-	.	.
=42	=42	=42	=42	=42	=42	=42	=42
0r	.	0r	.	1d	-qui-	1r	.
.	.	.	.	2.e	-sti-	1g	li-
.	.	.	.	4e	-que	.	.
=43	=43	=43	=43	=43	=43	=43	=43
0r	.	0r	.	1f	o-	1a	-qui-
.	.	.	.	1e	-cto	2.b	-sti-
.	.	.	.	.	.	4b	-que
=44	=44	=44	=44	=44	=44	=44	=44
0r	.	0r	.	2r	.	1cc	o-
.	.	.	.	1e	pi-	.	.
.	.	.	.	.	.	1b	-cto
.	.	.	.	2d	-gno-	.	.
=45	=45	=45	=45	=45	=45	=45	=45
0r	.	0r	.	2c	-ra	2r	.
.	.	.	.	1g	par-	1b	pi-
.	.	.	.	2f	-va	2a	-gno-
=46	=46	=46	=46	=46	=46	=46	=46
0r	.	0r	.	1.e	vi-	2g	-ra
.	.	.	.	.	.	1cc	par-
.	.	.	.	2d	.	2b	-va
=47	=47	=47	=47	=47	=47	=47	=47
1C	… quae	0r	.	2.c	.	2a	vi-
.	.	.	.	.	.	1g	.
.	.	.	.	4B	.	.	.
1D	ma-	.	.	1A	-ro,	.	.
.	.	.	.	.	.	2f#i	.
=48	=48	=48	=48	=48	=48	=48	=48
1E	-tris	1G	… quae	0r	.	1g	-ro,
1F	vul-	1A	ma-	.	.	1r	.
=49	=49	=49	=49	=49	=49	=49	=49
1E	-tus	1B	-tris	1e	… ma-	0r	.
1r	.	1c	vul-	1e	-tris	.	.
=50	=50	=50	=50	=50	=50	=50	=50
1E	ma-	1B	-tus	1e	… quae	0r	.
1E	-tris	1r	.	1g	col-	.	.
=51	=51	=51	=51	=51	=51	=51	=51
1E	quae	1B	ma-	2e	-la	0r	.
.	.	.	.	2e	re-	.	.
1G	col-	1B	-tris	1d	-qui-	.	.
=52	=52	=52	=52	=52	=52	=52	=52
2E	-la	1B	quae	1e	.	0r	.
2E	re-	.	.	.	.	.	.
1D	-qui-	1d	col-	1f	.	.	.
=53	=53	=53	=53	=53	=53	=53	=53
1E	.	2B	-la	2e	.	0r	.
.	.	2B	re-	1e	.	.	.
1F	.	1A	-qui-	.	.	.	.
.	.	.	.	2d	.	.	.
=54	=54	=54	=54	=54	=54	=54	=54
1E	.	2B	.	1e	-runt,	1r	.
.	.	2.c	.	.	.	.	.
2C	.	.	.	2r	.	2r	.
.	.	4B	.	.	.	.	.
[2D	.	4A	.	[2f	re-	2a	… re-
.	.	4G	.	.	.	.	.
=55	=55	=55	=55	=55	=55	=55	=55
2D]	.	2F	.	4f]	.	2a	-qui-
.	.	.	.	4e	.	.	.
2BB	.	1G	.	2d	.	2b	.
1AA	.	.	.	2.c	-qui-	1cc	.
.	.	2F#i	.	.	.	.	.
.	.	.	.	4d	.	.	.
=56	=56	=56	=56	=56	=56	=56	=56
1GG	-runt,	0G	-runt,	2e	.	1b	-runt,
.	.	.	.	2.d	.	.	.
2r	.	.	.	.	.	1r	.
.	.	.	.	4c	.	.	.
2G	re-	.	.	4B	.	.	.
.	.	.	.	4A	.	.	.
=57	=57	=57	=57	=57	=57	=57	=57
2G	-qui-	0r	.	4B	.	1g	sae-
.	.	.	.	4G	.	.	.
2E	.	.	.	1c	.	.	.
1D	.	.	.	.	.	2f	-pe
.	.	.	.	2B	.	2f	vo-
=58	=58	=58	=58	=58	=58	=58	=58
1C	-runt,	1c	sae-	1c	-runt,	1e	-cant
1r	.	2B	-pe	1G	sae-	1g	ma-
.	.	2B	vo-	.	.	.	.
=59	=59	=59	=59	=59	=59	=59	=59
1r	.	1A	-cant	2F	-pe	1a	-trem,
.	.	.	.	2F	vo-	.	.
1C	sae-	1c	ma-	1E	-cant	1r	.
=60	=60	=60	=60	=60	=60	=60	=60
2BB	-pe	1d	-trem,	1G	ma-	0r	.
2BB	vo-	.	.	.	.	.	.
1AA	-cant	1r	.	1A	-trem,	.	.
=61	=61	=61	=61	=61	=61	=61	=61
1C	ma-	0r	.	2G	.	1g	ma-
.	.	.	.	2c	.	.	.
1D	-trem,	.	.	[1A	.	2f	-tre
.	.	.	.	.	.	2f	ca-
=62	=62	=62	=62	=62	=62	=62	=62
0r	.	1c	ma-	1A]	.	1e	-re-
.	.	2B	-tre	1r	.	2g	-re
.	.	2B	ca-	.	.	2g	do-
=63	=63	=63	=63	=63	=63	=63	=63
1F	ma-	1A	-re-	0r	.	1a	-lent,
2E	-tre	2c	-re	.	.	1r	.
2E	ca-	2c	do-	.	.	.	.
=64	=64	=64	=64	=64	=64	=64	=64
1D	-re-	1d	-lent,	1d	ma-	0r	.
2F	-re	1r	.	2c	-tre	.	.
2F	do-	.	.	2c	ca-	.	.
=65	=65	=65	=65	=65	=65	=65	=65
1G	-lent,	1G	ma-	1B	-re-	1b	ma-
1r	.	2F	-tre	2d	-re	2a	-tre
.	.	2F	ca-	2d	do-	2a	ca-
=66	=66	=66	=66	=66	=66	=66	=66
1C	ma-	1E	-re-	1e	-lent.	1g	-re-
2BB	-tre	2G	-re	2r	.	2b	-re
2BB	ca-	2G	do-	2d	Me	2b	do-
=67	=67	=67	=67	=67	=67	=67	=67
1AA	-re-	1A	-lent.	2c	.	2cc	-lent.
.	.	.	.	2.e	.	2.c	Me
2C	-re	1E	Me	.	.	.	.
.	.	.	.	4d	.	4d	.
2C	do-	.	.	4c	.	[2e	.
.	.	.	.	4B	.	.	.
=68	=68	=68	=68	=68	=68	=68	=68
1D	-lent.	2F	mi-	2.A	.	2e]	.
.	.	2F	-se-	.	.	2d	.
.	.	.	.	4B	.	.	.
1AA	Me	1E	-rum,	2c	.	2e	.
.	.	.	.	[2A	mi-	2c	.
=69	=69	=69	=69	=69	=69	=69	=69
2BB	mi-	1B	me	2A]	.	2d	.
2BB	-se-	.	.	2G	.	2dd	mi-
1AA	-rum,	2c	mi-	2A	.	2cc	.
.	.	2c	-se-	2A	-se-	[2a	.
=70	=70	=70	=70	=70	=70	=70	=70
1E	me	1B	-rum,	2E	-rum,	2a]	.
.	.	.	.	2e	me	2g#i	-se-
2F	mi-	1r	.	2c	mi-	1a	-rum,
2F	-se-	.	.	2d	-se-	.	.
=71	=71	=71	=71	=71	=71	=71	=71
1E	-rum,	1B	me	2G	-rum,	2r	.
.	.	.	.	2G	[me	2b	me
1r	.	2c	mi-	2E	mi-	2g	mi-
.	.	2c	-se-	2F	-se-	2a	-se-
=72	=72	=72	=72	=72	=72	=72	=72
1r	.	1B	-rum,	1G	-rum,]	1d	-rum,
1E	me	1r	.	2r	.	2r	.
.	.	.	.	2e	me	2g	me
=73	=73	=73	=73	=73	=73	=73	=73
2F	mi-	1A	me	2c	mi-	2f	mi-
2F	-se-	.	.	2d	-se-	1a	.
1E	-rum!	2B	mi-	1e	-rum!	.	.
.	.	2B	-se-	.	.	2g#i	-se-
=74	=74	=74	=74	=74	=74	=74	=74
2r	.	[0A	-rum!	1r	.	[0a	-rum!
1F	sunt-	.	.	.	.	.	.
.	.	.	.	2r	.	.	.
2F	-ne	.	.	[2c	sunt-	.	.
=75	=75	=75	=75	=75	=75	=75	=75
1F	haec	1A]	.	2c]	.	0a]	.
.	.	.	.	2c	-ne	.	.
2A	tha-	1r	.	1c	haec	.	.
2A	-la-	.	.	.	.	.	.
=76	=76	=76	=76	=76	=76	=76	=76
1E	-mi	0r	.	2e	tha-	0r	.
.	.	.	.	2e	-la-	.	.
2G	mo-	.	.	1B	-mi	.	.
2G	-nu-	.	.	.	.	.	.
=77	=77	=77	=77	=77	=77	=77	=77
1G	-men-	0r	.	2d	mo-	0r	.
.	.	.	.	2d	-nu-	.	.
2D	-ta	.	.	1d	-men-	.	.
2G	re-	.	.	.	.	.	.
=78	=78	=78	=78	=78	=78	=78	=78
2F	-li-	0r	.	2A	-ta	0r	.
4E	.	.	.	2d	re-	.	.
4D	.	.	.	.	.	.	.
1E	.	.	.	2B	-li-	.	.
.	.	.	.	2c	.	.	.
=79	=79	=79	=79	=79	=79	=79	=79
1D	-cti,	0r	.	1d	.	2r	.
.	.	.	.	.	.	1f	sunt-
2r	.	.	.	[1A	-cti,	.	.
[2F	sunt-	.	.	.	.	2f	-ne
=80	=80	=80	=80	=80	=80	=80	=80
2F]	.	2r	.	0A]	.	1f	haec
2F	-ne	1c	sunt-	.	.	.	.
1F	haec	.	.	.	.	2a	tha-
.	.	2c	-ne	.	.	2a	-la-
=81	=81	=81	=81	=81	=81	=81	=81
2A	tha-	1c	haec	2r	.	1e	-mi
2A	-la-	.	.	2A	mo-	.	.
1E	-mi	2e	tha-	2B	-nu-	2g	mo-
.	.	2e	-la-	2e	.	2g	-nu-
=82	=82	=82	=82	=82	=82	=82	=82
2G	mo-	1B	-mi	1d	-men-	1g	-men-
2G	-nu-	.	.	.	.	.	.
1G	-men-	2d	mo-	1B	-ta	2d	-ta
.	.	2d	-nu-	.	.	2g	re-
=83	=83	=83	=83	=83	=83	=83	=83
2D	-ta	1d	-men-	2r	.	2f	-li-
2G	re-	.	.	2B	re-	2g	.
2F	-li-	2A	-ta	2c	-li-	1a	.
4E	.	2d	re-	2f	.	.	.
4D	.	.	.	.	.	.	.
=84	=84	=84	=84	=84	=84	=84	=84
1E	.	2B	-li-	2e	.	2g	.
.	.	4A	.	2c	.	1g	.
.	.	4G	.	.	.	.	.
1D	-cti,	1A	.	1d	.	.	.
.	.	.	.	.	.	2f#i	.
=85	=85	=85	=85	=85	=85	=85	=85
1E	sic,	1G	-cti,	1B	.	0g	-cti,
1C	u-	1r	.	1e	-cti,	.	.
=86	=86	=86	=86	=86	=86	=86	=86
1D	-xor,	1B	sic,	1r	.	0r	.
1E	ser-	1G	u-	1e	sic,	.	.
=87	=87	=87	=87	=87	=87	=87	=87
1AA	-vas	1A	-xor,	1c	u-	1r	.
1r	.	1B	ser-	1d	-xor,	1b	sic,
=88	=88	=88	=88	=88	=88	=88	=88
1r	.	1E	-vas	1e	ser-	1g	u-
1F	dul-	1r	.	1A	-vas	1a	-xor,
=89	=89	=89	=89	=89	=89	=89	=89
2G	-ci-	1r	.	1d	dul-	1b	ser-
2G	-a	.	.	.	.	.	.
1A	mem-	1c	dul-	2c	-ci-	1e	-vas
.	.	.	.	2A	-a	.	.
=90	=90	=90	=90	=90	=90	=90	=90
2G	-bra	2d	-ci-	2B	mem-	2r	.
2F	do-	2d	-a	2A	.	2f	dul-
1E	-mus,	1e	mem-	1B	-bra,	2g	-ci-
.	.	.	.	.	.	2g	-a
=91	=91	=91	=91	=91	=91	=91	=91
0r	.	2d	-bra	2r	.	1a	mem-
.	.	2c	do-	1e	dul-	.	.
.	.	1B	-mus,	.	.	2g	-bra
.	.	.	.	2d	-ci-	2f	do-
=92	=92	=92	=92	=92	=92	=92	=92
1r	.	2r	.	2c	-a	1e	-mus,
.	.	1c	dul-	2e	mem-	.	.
1F	dul-	.	.	1f	.	1a	dul-
.	.	2d	-ci-	.	.	.	.
=93	=93	=93	=93	=93	=93	=93	=93
2G	-ci-	2d	-a	2d	.	2b	-ci-
2G	-a	1e	mem-	1g	.	2b	-a
1A	mem-	.	.	.	.	1cc	mem-
.	.	2c	-bra	2f	.	.	.
=94	=94	=94	=94	=94	=94	=94	=94
2G	-bra	2d	do-	2g	-bra	2b	-bra
2F	do-	2A	.	2d	do-	1a	do-
1E	-mus,	1B	.	1e	-mus,	.	.
.	.	.	.	.	.	2g#i	.
=95	=95	=95	=95	=95	=95	=95	=95
1r	.	1A	-mus,	2r	.	1a	-mus,
.	.	.	.	1c	[dul-	.	.
1F	dul-	1r	.	.	.	2r	.
.	.	.	.	2d	-ci-	2a	dul-
=96	=96	=96	=96	=96	=96	=96	=96
2G	-ci-	1B	dul-	2d	-a	2g	-ci-
2G	-a	.	.	2.e	mem-	2g	-a
1A	mem-	2c	-ci-	.	.	1cc	mem-
.	.	.	.	4d	.	.	.
.	.	2c	-a	4e	.	.	.
.	.	.	.	4f	.	.	.
=97	=97	=97	=97	=97	=97	=97	=97
2G	-bra	1d	mem-	2g	.	2b	-bra
2F	do-	.	.	2d	-bra	1a	do-
1E	-mus?	2c	-bra	1e	do-	.	.
.	.	2B	do-	.	.	2g#i	.
=98	=98	=98	=98	=98	=98	=98	=98
0r	.	1A	-mus?	1c	-mus?]	1a	-mus?
.	.	1r	.	1r	.	1r	.
=99	=99	=99	=99	=99	=99	=99	=99
0F	O	1r	.	[0c	O	0f	O
.	.	[1A	O	.	.	.	.
=100	=100	=100	=100	=100	=100	=100	=100
0C	sors,	1A]	.	0c]	.	0e	sors,
.	.	[1G	sors,	.	.	.	.
=101	=101	=101	=101	=101	=101	=101	=101
1r	.	1G]	.	1B	sors,	1r	.
1F	o	1A	o	2r	.	1f	o
.	.	.	.	2c	o	.	.
=102	=102	=102	=102	=102	=102	=102	=102
2C	pi-	2G	pi-	2c	pi-	2e	pi-
2D	-e-	2F	-e-	2A	-e-	2d	-e-
1AA	-tas,	1E	-tas,	2A	-tas,	1c	-tas,
.	.	.	.	2e	o	.	.
=103	=103	=103	=103	=103	=103	=103	=103
0r	.	1A	o	2e	pi-	1cc	o
.	.	.	.	2c	-e-	.	.
.	.	2G	pi-	4d	.	2b	pi-
.	.	.	.	2e	.	.	.
.	.	2F	-e-	.	.	2a	-e-
.	.	.	.	4d	.	.	.
=104	=104	=104	=104	=104	=104	=104	=104
1r	.	1E	-tas,	2e	-tas,	1g	-tas,
.	.	.	.	2e	o	.	.
1A	o	1r	.	4c	pi-	1cc	o
.	.	.	.	4d	.	.	.
.	.	.	.	4e	.	.	.
.	.	.	.	4f	.	.	.
=105	=105	=105	=105	=105	=105	=105	=105
2G	pi-	1r	.	4g	.	2b	pi-
.	.	.	.	2e	-e-	.	.
2F	-e-	.	.	.	.	2a	-e-
.	.	.	.	4d	.	.	.
1E	-tas,	1B	vis	1e	-tas,	1g	-tas,
=106	=106	=106	=106	=106	=106	=106	=106
1E	vis	1B	o	1r	.	1r	.
1E	o	1B	sae-	1e	vis	1g	vis
=107	=107	=107	=107	=107	=107	=107	=107
1E	sae-	1B	-vis-	1e	o	1g	o
1E	-vis-	2B	-si-	1e	sae-	1g	sae-
.	.	2B	-ma	.	.	.	.
=108	=108	=108	=108	=108	=108	=108	=108
2C	-si-	0c	fa-	1e	-vis-	1g	-vis-
2C	-ma	.	.	.	.	.	.
1AA	fa-	.	.	2e	-si-	2a	-si-
.	.	.	.	2e	-ma	2a	-ma
=109	=109	=109	=109	=109	=109	=109	=109
[0E	-ti:	0B	-ti:	1.e	fa-	[0g	fa-
.	.	.	.	4d	.	.	.
.	.	.	.	4c	.	.	.
=110	=110	=110	=110	=110	=110	=110	=110
0E]	.	1r	.	4B	.	0g]	.
.	.	.	.	4G	.	.	.
.	.	.	.	1c	.	.	.
.	.	1G	in	.	.	.	.
.	.	.	.	2B	.	.	.
=111	=111	=111	=111	=111	=111	=111	=111
1r	.	1A	lu-	1c	.	0e	-ti:
1C	in	1c	-ctum	1G	-ti:	.	.
=112	=112	=112	=112	=112	=112	=112	=112
1D	lu-	1B	per	0r	.	0r	.
1F	-ctum	1A	te	.	.	.	.
=113	=113	=113	=113	=113	=113	=113	=113
1E	per	1G	gau-	0r	.	0r	.
1D	te	2F	-di-	.	.	.	.
.	.	2F	-a	.	.	.	.
=114	=114	=114	=114	=114	=114	=114	=114
1C	gau-	1E	no-	0r	.	1r	.
2BB	-di-	2D	-stra	.	.	1g	in
2BB	-a	[2G	ru-	.	.	.	.
=115	=115	=115	=115	=115	=115	=115	=115
0AA	no-	2G]	.	1r	.	1a	lu-
.	.	4F	.	.	.	.	.
.	.	4E	.	.	.	.	.
.	.	2F	.	1c	in	1cc	-ctum
.	.	2C	.	.	.	.	.
=116	=116	=116	=116	=116	=116	=116	=116
1GG	-stra	1G	.	1d	lu-	1b	per
2r	.	2D	.	1f	-ctum	1a	te
2D	ru-	2d	.	.	.	.	.
=117	=117	=117	=117	=117	=117	=117	=117
2.E	.	2.B	.	1e	per	1g	gau-
4C	.	4c	.	.	.	.	.
2D	.	2A	.	1d	te	2f	-di-
2BB	.	2B	.	.	.	2f	-a
=118	=118	=118	=118	=118	=118	=118	=118
2.C	.	2G	.	1c	gau-	1e	no-
.	.	2A	.	.	.	.	.
4AA	.	.	.	.	.	.	.
2BB	.	1D	-unt,	2B	-di-	2d	-stra
2GG	.	.	.	2B	-a	[2g	ru-
=119	=119	=119	=119	=119	=119	=119	=119
1.D	.	2r	.	0A	no-	2g]	.
.	.	1d	ru-	.	.	4f	.
.	.	.	.	.	.	4e	.
.	.	.	.	.	.	2f	.
2AA	.	2e	.	.	.	2c	-unt,
=120	=120	=120	=120	=120	=120	=120	=120
2.E	.	2.B	.	1G	-stra	2.g	ru-
4C	.	4c	.	.	.	4e	.
2D	.	2A	.	2r	.	2f	.
2BB	.	2B	.	2d	ru-	2d	.
=121	=121	=121	=121	=121	=121	=121	=121
2.C	.	2G	.	2.e	.	2c	.
.	.	2A	.	.	.	2cc	.
4AA	.	.	.	4c	.	.	.
2BB	.	2D	.	2d	.	1b	.
2GG	.	2G	.	2B	.	.	.
=122	=122	=122	=122	=122	=122	=122	=122
2.AA	.	2.E	.	2.c	.	2a	.
.	.	.	.	.	.	2cc	.
4FF	.	4F	.	4A	.	.	.
2GG	.	2D	.	2B	.	1b	.
2G	.	2E	.	2G	.	.	.
=123	=123	=123	=123	=123	=123	=123	=123
2.D	.	2.F	.	1.d	.	0a	.
4E	.	4G	.	.	.	.	.
1F	.	4A	.	.	.	.	.
.	.	4B	.	.	.	.	.
.	.	[2c	.	2A	.	.	.
=124	=124	=124	=124	=124	=124	=124	=124
[0E	-unt.	2c]	.	0e	.	0g	-unt.
.	.	4B	.	.	.	.	.
.	.	4A	.	.	.	.	.
.	.	2B	.	.	.	.	.
.	.	2c	.	.	.	.	.
=125	=125	=125	=125	=125	=125	=125	=125
0E]	.	1.B	.	1.e	.	1r	.
.	.	.	.	.	.	1e	Sed
.	.	2G	.	2B	.	.	.
=126	=126	=126	=126	=126	=126	=126	=126
1r	.	0G	-unt.	1B	-unt.	1g	nil
1E	Sed	.	.	1r	.	1g	in
=127	=127	=127	=127	=127	=127	=127	=127
1G	nil	1r	.	1B	Sed	1d	ter-
1G	in	1B	Sed	1d	nil	1d	-ris
=128	=128	=128	=128	=128	=128	=128	=128
1D	ter-	1d	nil	1d	in	2f	sta-
.	.	.	.	.	.	2f	-bi-
1D	-ris	1d	in	1A	ter-	1f	-le
=129	=129	=129	=129	=129	=129	=129	=129
2F	sta-	1A	ter-	1A	-ris	1.a	est
2F	-bi-	.	.	.	.	.	.
1F	-le	1A	-ris	2c	sta-	.	.
.	.	.	.	2c	-bi-	4g	.
.	.	.	.	.	.	4f	.
=130	=130	=130	=130	=130	=130	=130	=130
1.A	est	2c	sta-	1c	-le	1e	.
.	.	2c	-bi-	.	.	.	.
.	.	1c	-le	1e	est	1a	ex-
4G	.	.	.	.	.	.	.
4F	.	.	.	.	.	.	.
=131	=131	=131	=131	=131	=131	=131	=131
1E	.	1.e	est	1r	.	1g	-pers-
1A	ex-	.	.	1c	ex-	2e	-que
.	.	4d	.	.	.	2e	ru-
.	.	4c	.	.	.	.	.
=132	=132	=132	=132	=132	=132	=132	=132
1G	-pers-	0B	.	1d	-pers-	[0g	-i-
2E	-que	.	.	2e	-que	.	.
2E	ru-	.	.	2e	ru-	.	.
=133	=133	=133	=133	=133	=133	=133	=133
2G	-i-	1r	.	2B	-i-	1g]	.
2C	.	.	.	1e	.	.	.
1D	-na	1A	… et	.	.	1f	.
.	.	.	.	2d	.	.	.
=134	=134	=134	=134	=134	=134	=134	=134
1r	.	1c	nos	2e	-na,	1e	-na
.	.	.	.	2A	ru-	.	.
1AA	et	1c	nil	1A	-i-	1r	.
=135	=135	=135	=135	=135	=135	=135	=135
1C	nos	2G	a-	1E	-na	1e	et
.	.	2G	-li-	.	.	.	.
1C	nil	1G	-ud	2r	.	1g	nos
.	.	.	.	2E	et	.	.
=136	=136	=136	=136	=136	=136	=136	=136
2GG	a-	1B	quam	1G	nos	1g	nil
2GG	-li-	.	.	.	.	.	.
1GG	-ud	2B	le-	1G	nil	2d	a-
.	.	2B	-vis	.	.	2d	-li-
=137	=137	=137	=137	=137	=137	=137	=137
1BB	quam	1d	au-	2D	a-	1d	-ud
.	.	.	.	2D	-li-	.	.
2BB	le-	2d	-ra	1D	-ud	2r	.
2BB	-vis	2d	su-	.	.	2f	quam
=138	=138	=138	=138	=138	=138	=138	=138
1D	au-	2A	-mus,	1F	quam	2f	le-
.	.	1d	su-	.	.	2f	-vis
2D	-ra	.	.	2F	le-	1a	au-
2D	su-	4c	.	2F	-vis	.	.
.	.	4B	.	.	.	.	.
=139	=139	=139	=139	=139	=139	=139	=139
[0AA	-mus,	1c	-mus,	1A	au-	2a	-ra
.	.	.	.	.	.	2a	su-
.	.	2r	.	2A	-ra	1e	-mus,
.	.	2c	-mus,	2A	su-	.	.
=140	=140	=140	=140	=140	=140	=140	=140
0AA]	.	4c	.	2E	.	1r	.
.	.	4B	.	.	.	.	.
.	.	4A	.	1c	.	.	.
.	.	4G	.	.	.	.	.
.	.	2A	.	.	.	1e	et
.	.	4G	.	4B	.	.	.
.	.	4F	.	4A	.	.	.
=141	=141	=141	=141	=141	=141	=141	=141
1r	.	4E	.	1B	-mus,	1g	nos
.	.	4F	.	.	.	.	.
.	.	4G	.	.	.	.	.
.	.	4A	.	.	.	.	.
1E	et	1B	.	1r	.	1g	nil
=142	=142	=142	=142	=142	=142	=142	=142
1G	nos	1r	.	1B	et	2d	a-
.	.	.	.	.	.	2d	-li-
1G	nil	1B	et	1d	nos	1d	-ud
=143	=143	=143	=143	=143	=143	=143	=143
2D	a-	1d	nos	1d	nil	1f	quam
2D	-li-	.	.	.	.	.	.
1D	-ud	1d	nil	2A	a-	2f	le-
.	.	.	.	2A	-li-	2f	-vis
=144	=144	=144	=144	=144	=144	=144	=144
1F	quam	2A	a-	1A	-ud	1a	au-
.	.	2A	-li-	.	.	.	.
2F	le-	1A	-ud	1c	quam	2a	-ra
2F	-vis	.	.	.	.	2a	su-
=145	=145	=145	=145	=145	=145	=145	=145
1A	au-	1c	quam	2c	le-	2e	-mus.
.	.	.	.	2c	-vis	1a	.
2A	-ra	2c	le-	1e	au-	.	.
2A	su-	2c	-vis	.	.	4g	.
.	.	.	.	.	.	4f	.
=146	=146	=146	=146	=146	=146	=146	=146
[0El	-mus.	1e	au-	2e	-ra	[0gl	.
.	.	.	.	2e	su-	.	.
.	.	2e	-ra	1B	-mus.	.	.
.	.	2e	su-	.	.	.	.
=147	=147	=147	=147	=147	=147	=147	=147
00E]	.	00B	-mus.	00e	.	00g]	.
=148||	=148||	=148||	=148||	=148||	=148||	=148||	=148||
*M2/1	*	*M2/1	*	*M2/1	*	*M2/1	*
*met(C|)	*	*met(C|)	*	*met(C|)	*	*met(C|)	*
!!section: Secunda pars: Parce tuis
!!!OMD: Secunda pars: Parce tuis
0r	.	0r	.	0r	.	0b	Par-
=149	=149	=149	=149	=149	=149	=149	=149
0r	.	0r	.	0r	.	1g	-ce
.	.	.	.	.	.	1a	tu-
=150	=150	=150	=150	=150	=150	=150	=150
0r	.	0r	.	0e	Par-	0b	-is
=151	=151	=151	=151	=151	=151	=151	=151
0r	.	0r	.	1c	-ce	1cc	la-
.	.	.	.	1d	tu-	1a	.
=152	=152	=152	=152	=152	=152	=152	=152
0r	.	0r	.	0e	-is	4g	.
.	.	.	.	.	.	4a	.
.	.	.	.	.	.	4b	.
.	.	.	.	.	.	4cc	.
.	.	.	.	.	.	2b	.
.	.	.	.	.	.	2ee	.
=153	=153	=153	=153	=153	=153	=153	=153
0r	.	0r	.	1f	la-	2dd	.
.	.	.	.	.	.	1cc	.
.	.	.	.	1d	.	.	.
.	.	.	.	.	.	2b	-cri-
=154	=154	=154	=154	=154	=154	=154	=154
0r	.	0r	.	4c	.	1cc	-mis,
.	.	.	.	4d	.	.	.
.	.	.	.	4e	.	.	.
.	.	.	.	4f	.	.	.
.	.	.	.	2e	.	2r	.
.	.	.	.	2a	-cri-	[2cc	la-
=155	=155	=155	=155	=155	=155	=155	=155
0E	Par-	0r	.	1g	-mis,	2cc]	.
.	.	.	.	.	.	4b	.
.	.	.	.	.	.	4a	.
.	.	.	.	2r	.	4b	.
.	.	.	.	.	.	4a	.
.	.	.	.	[2g	la-	4g	.
.	.	.	.	.	.	4f	.
=156	=156	=156	=156	=156	=156	=156	=156
1C	-ce	0r	.	2g]	.	2e	.
.	.	.	.	4f	.	2ee	.
.	.	.	.	4e	.	.	.
1D	tu-	.	.	4f	.	4dd	.
.	.	.	.	4e	.	4cc	.
.	.	.	.	4d	.	4b	.
.	.	.	.	4c	.	4a	.
=157	=157	=157	=157	=157	=157	=157	=157
0E	-is	0e	Par-	2B	.	2g	.
.	.	.	.	2c	.	1a	.
.	.	.	.	1B	.	.	.
.	.	.	.	.	.	2g#i	.
=158	=158	=158	=158	=158	=158	=158	=158
1F	la-	1c	-ce	2A	.	1.a	.
.	.	.	.	1c	.	.	.
1D	-cri-	1d	tu-	.	.	.	.
.	.	.	.	2B	-cri-	4g	.
.	.	.	.	.	.	4f	.
=159	=159	=159	=159	=159	=159	=159	=159
0C	-mis,	0e	-is	0c	-mis,	2a	.
.	.	.	.	.	.	2g	-cri-
.	.	.	.	.	.	1g	-mis,
=160	=160	=160	=160	=160	=160	=160	=160
1r	.	1f	la-	1d	con-	1r	.
1D	con-	1d	-cri-	1A	-iunx,	1f	con-
=161	=161	=161	=161	=161	=161	=161	=161
1F	-iunx	0c	-mis,	2r	.	1a	-iunx
.	.	.	.	2A	con-	.	.
1F	mi-	.	.	2A	-iunx	1a	mi-
.	.	.	.	2A	mi-	.	.
=162	=162	=162	=162	=162	=162	=162	=162
1C	-tis-	1r	.	1e	-tis-	1g	-tis-
2D	-si-	1A	con-	2d	-si-	2f	-si-
2D	-me,	.	.	2d	-me,	2f	-me,
=163	=163	=163	=163	=163	=163	=163	=163
1C	nec	1c	-iunx	1G	nec	1e	nec
1AA	te	1c	mi-	1A	te	1e	te
=164	=164	=164	=164	=164	=164	=164	=164
1E	con-	1G	-tis-	1B	con-	1g	con-
2C	-fi-	2A	-si-	2e	-fi-	2e	-fi-
2D	-ci-	2A	-me,	2d	-ci-	2f	-ci-
=165	=165	=165	=165	=165	=165	=165	=165
1E	-as,	1G	nec	1B	-as,	1g	-as,
1r	.	1E	te	2r	.	2r	.
.	.	.	.	2B	con-	2g	con-
=166	=166	=166	=166	=166	=166	=166	=166
1E	con-	1B	con-	2.G	-fi-	2e	-fi-
.	.	.	.	.	.	1g	-ci-
.	.	.	.	4A	.	.	.
2E	-fi-	2G	-fi-	4B	.	.	.
.	.	.	.	4c	.	.	.
2D	-ci-	2A	-ci-	[2d	.	2f	.
=167	=167	=167	=167	=167	=167	=167	=167
1G	-as:	0B	-as:	2d]	.	1g	-as:
.	.	.	.	2d	-ci-	.	.
1r	.	.	.	1d	-as:	1r	.
=168	=168	=168	=168	=168	=168	=168	=168
1A	a-	1r	.	2r	.	1cc	a-
.	.	.	.	2.c	a-	.	.
1A	-bi-	1e	a-	.	.	1cc	-bi-
.	.	.	.	4d	.	.	.
.	.	.	.	4e	.	.	.
.	.	.	.	4f	.	.	.
=169	=169	=169	=169	=169	=169	=169	=169
0G	-i,	1e	-bi-	1.g	.	0b	-i,
.	.	[1d	-i,	.	.	.	.
.	.	.	.	2g	-bi-	.	.
=170	=170	=170	=170	=170	=170	=170	=170
1r	.	1d]	.	1G	-i,	1r	.
1G	o	2r	.	2r	.	1b	o
.	.	[2d	o	2g	o	.	.
=171	=171	=171	=171	=171	=171	=171	=171
1G	bo-	2d]	.	2g	bo-	1b	bo-
.	.	1d	bo-	2G	-ne,	.	.
1F	-ne,	.	.	1A	non	1a	-ne,
.	.	[2c	-ne,	.	.	.	.
=172	=172	=172	=172	=172	=172	=172	=172
0E	non	2c]	.	2e	ob-	0g	non
.	.	1B	non	2e	-i-	.	.
.	.	.	.	1e	-i,	.	.
.	.	2c	ob-	.	.	.	.
=173	=173	=173	=173	=173	=173	=173	=173
1D	ob-	2F	-i-	2r	.	1f	ob-
.	.	2.F	-i,	2A	non	.	.
1D	-i-	.	.	2A	o-	1f	-i-
.	.	4E	.	.	.	.	.
.	.	4F	.	2A	-bi-	.	.
.	.	4G	.	.	.	.	.
=174	=174	=174	=174	=174	=174	=174	=174
0AA	-i.	1A	.	0c	-i.	[0e	-i.
.	.	2r	.	.	.	.	.
.	.	2A	non	.	.	.	.
=175	=175	=175	=175	=175	=175	=175	=175
0C	.	2A	o-	1r	.	1e]	.
.	.	2G	-bi-	.	.	.	.
.	.	1G	-i.	1c	Me	1r	.
=176	=176	=176	=176	=176	=176	=176	=176
0r	.	0r	.	2e	tu-	1g	Me
.	.	.	.	2e	-lit	.	.
.	.	.	.	1d	ad	2b	tu-
.	.	.	.	.	.	2b	-lit
=177	=177	=177	=177	=177	=177	=177	=177
1r	.	0r	.	2f	su-	1a	ad
.	.	.	.	2f	-pe-	.	.
1C	Me	.	.	1e	-ros	2cc	su-
.	.	.	.	.	.	2cc	-pe-
=178	=178	=178	=178	=178	=178	=178	=178
2E	tu-	1G	Me	0r	.	1b	-ros
2E	-lit	.	.	.	.	.	.
1D	ad	2B	tu-	.	.	1r	.
.	.	2B	-lit	.	.	.	.
=179	=179	=179	=179	=179	=179	=179	=179
2F	su-	1A	ad	1a	cel-	1r	.
2F	-pe-	.	.	.	.	.	.
1E	-ros	2c	su-	1g	-si	1ee	cel-
.	.	2c	-pe-	.	.	.	.
=180	=180	=180	=180	=180	=180	=180	=180
0r	.	1B	-ros	1g	re-	1dd	-si
.	.	1r	.	1g	-gna-	1dd	re-
=181	=181	=181	=181	=181	=181	=181	=181
0r	.	0r	.	2d	-tor	1dd	-gna-
.	.	.	.	2d	O-	.	.
.	.	.	.	1f	-lym-	2a	-tor
.	.	.	.	.	.	2a	O-
=182	=182	=182	=182	=182	=182	=182	=182
1A	cel-	1r	.	1e	-pi,	1cc	-lym-
1G	-si	1e	cel-	2r	.	1b	-pi,
.	.	.	.	2g	re-	.	.
=183	=183	=183	=183	=183	=183	=183	=183
1G	re-	1d	-si	1g	-gna-	2r	.
.	.	.	.	.	.	2b	re-
1G	-gna-	1d	re-	2g	-tor	1b	-gna-
.	.	.	.	2g	O-	.	.
=184	=184	=184	=184	=184	=184	=184	=184
2D	-tor	1d	-gna-	1f	-lym-	2a	-tor
2D	O-	.	.	.	.	2a	O-
1F	-lym-	2A	-tor	2.c	.	1a	-lym-
.	.	2A	O-	.	.	.	.
.	.	.	.	4d	.	.	.
=185	=185	=185	=185	=185	=185	=185	=185
[0E	-pi:	1c	-lym-	0e	-pi:	[0g	-pi:
.	.	[1B	-pi:	.	.	.	.
=186	=186	=186	=186	=186	=186	=186	=186
0E]	.	0B]	.	1r	.	1g]	.
.	.	.	.	1g	per-	1r	.
=187	=187	=187	=187	=187	=187	=187	=187
0r	.	0r	.	2f	-fru-	1dd	per-
.	.	.	.	2d	-or	.	.
.	.	.	.	1f	ae-	2cc	-fru-
.	.	.	.	.	.	2a	-or
=188	=188	=188	=188	=188	=188	=188	=188
1r	.	0r	.	2e	-the-	1cc	ae-
.	.	.	.	2e	-re-	.	.
1G	per-	.	.	1d	-is	2b	-the-
.	.	.	.	.	.	2b	-re-
=189	=189	=189	=189	=189	=189	=189	=189
2F	-fru-	1d	per-	0r	.	0a	-is
2D	-or	.	.	.	.	.	.
1F	ae-	2c	-fru-	.	.	.	.
.	.	2A	-or	.	.	.	.
=190	=190	=190	=190	=190	=190	=190	=190
2E	-the-	1c	ae-	1r	.	0r	.
2E	-re-	.	.	.	.	.	.
[1D	-is	2B	-the-	1d	nunc	.	.
.	.	2B	-re-	.	.	.	.
=191	=191	=191	=191	=191	=191	=191	=191
1D]	.	0A	-is	2f	e-	1a	nunc
.	.	.	.	2f	-go	.	.
1r	.	.	.	1e	lae-	2cc	e-
.	.	.	.	.	.	2cc	-go
=192	=192	=192	=192	=192	=192	=192	=192
0r	.	0r	.	2d	-ta	1b	lae-
.	.	.	.	2e	cho-	.	.
.	.	.	.	2c	.	2a	-ta
.	.	.	.	2d	.	2b	cho-
=193	=193	=193	=193	=193	=193	=193	=193
0r	.	0r	.	2e	.	2g	.
.	.	.	.	2c	.	1a	.
.	.	.	.	1B	.	.	.
.	.	.	.	.	.	2g#i	.
=194	=194	=194	=194	=194	=194	=194	=194
1r	.	0r	.	2A	-ris,	[0a	.
.	.	.	.	2d	nunc	.	.
1D	nunc	.	.	2f	e-	.	.
.	.	.	.	2f	-go	.	.
=195	=195	=195	=195	=195	=195	=195	=195
2F	e-	1A	nunc	2.c	lae-	1a]	.
2F	-go	.	.	.	.	.	.
.	.	.	.	4d	.	.	.
1E	lae-	2c	e-	2e	.	1g	-ris,
.	.	2c	-go	2c	-ta	.	.
=196	=196	=196	=196	=196	=196	=196	=196
2D	-ta	1B	lae-	2d	cho-	0r	.
2E	cho-	.	.	2B	.	.	.
2C	.	2A	.	2e	.	.	.
2D	.	2B	.	2d	.	.	.
=197	=197	=197	=197	=197	=197	=197	=197
2E	.	2G	-ta	2B	.	0r	.
2C	.	1A	cho-	2c	.	.	.
1BB	.	.	.	1d	-ris,	.	.
.	.	2G#i	.	.	.	.	.
=198	=198	=198	=198	=198	=198	=198	=198
2AA	-ris,	1A	-ris,	2r	.	0r	.
2D	nunc	.	.	2d	nunc	.	.
2D	e-	1d	nunc	2f	e-	.	.
2D	-go	.	.	2f	-go	.	.
=199	=199	=199	=199	=199	=199	=199	=199
1D	lae-	2f	e-	1d	lae-	1a	nunc
.	.	2f	-go	.	.	.	.
4C	-ta	1e	lae-	2G	-ta	2cc	e-
4D	.	.	.	.	.	.	.
4E	.	.	.	[2g	cho-	2cc	-go
4F	.	.	.	.	.	.	.
=200	=200	=200	=200	=200	=200	=200	=200
2G	.	2d	-ta	1g]	.	1b	lae-
2E	.	2e	.	.	.	.	.
2A	cho-	2c	cho-	2f	.	2a	-ta
2G	.	2d	.	[2g	.	2b	cho-
=201	=201	=201	=201	=201	=201	=201	=201
2.C	.	2e	.	4g]	.	2g	.
.	.	.	.	4f	.	.	.
.	.	2c	.	2.e	.	1a	.
4D	.	.	.	.	.	.	.
1E	.	1B	.	.	.	.	.
.	.	.	.	4d	.	.	.
.	.	.	.	2B	.	2g#i	.
=202	=202	=202	=202	=202	=202	=202	=202
1AA	-ris.	1A	-ris.	1c	-ris.	1a	-ris.
1r	.	1r	.	1r	.	1r	.
=203	=203	=203	=203	=203	=203	=203	=203
0AA	Nec	0A	Nec	0c	Nec	0e	Nec
=204	=204	=204	=204	=204	=204	=204	=204
0AA	te	0A	te	1c	te	0e	te
.	.	.	.	2r	.	.	.
.	.	.	.	[2c	sol-	.	.
=205	=205	=205	=205	=205	=205	=205	=205
0E	sol-	0G	sol-	2c]	.	0g	sol-
.	.	.	.	4B	.	.	.
.	.	.	.	4A	.	.	.
.	.	.	.	1B	.	.	.
=206	=206	=206	=206	=206	=206	=206	=206
1E	-li-	1B	-li-	1e	-li-	1g	-li-
1E	-ci-	1G	-ci-	1e	-ci-	1g	-ci-
=207	=207	=207	=207	=207	=207	=207	=207
0D	-tet	0d	-tet	1f	-tet	0a	-tet
.	.	.	.	2r	.	.	.
.	.	.	.	[2f	li-	.	.
=208	=208	=208	=208	=208	=208	=208	=208
1A	li-	1c	li-	2f]	.	1a	li-
.	.	.	.	4e	.	.	.
.	.	.	.	4d	.	.	.
1A	-be-	1c	-be-	2e	.	1a	-be-
.	.	.	.	2f	-be-	.	.
=209	=209	=209	=209	=209	=209	=209	=209
0G	-rum	0d	-rum	1g	-rum	0b	-rum
.	.	.	.	2r	.	.	.
.	.	.	.	2g	pi-	.	.
=210	=210	=210	=210	=210	=210	=210	=210
1G	pi-	1d	pi-	2g	-a	1b	pi-
.	.	.	.	1g	cu-	.	.
1G	-a	1d	-a	.	.	1b	-a
.	.	.	.	[2G	-ra	.	.
=211	=211	=211	=211	=211	=211	=211	=211
0C	cu-	1e	cu-	2G]	.	0cc	cu-
.	.	.	.	2G	tu-	.	.
.	.	2c	-ra	1G	-o-	.	.
.	.	2c	tu-	.	.	.	.
=212	=212	=212	=212	=212	=212	=212	=212
1GG	-ra	2.d	-o-	1G	-rum,	1b	-ra
.	.	4c	.	.	.	.	.
1BB	tu-	4B	.	1r	.	1g	tu-
.	.	4A	.	.	.	.	.
.	.	[2G	.	.	.	.	.
=213	=213	=213	=213	=213	=213	=213	=213
0AA	-o-	2G]	.	2r	.	0a	-o-
.	.	4F#i	.	2c	tu-	.	.
.	.	4E	.	.	.	.	.
.	.	1F#i	.	1c	-o-	.	.
=214	=214	=214	=214	=214	=214	=214	=214
[0E	-rum:	[0G	-rum:	0B	-rum:	0b	-rum:
=215	=215	=215	=215	=215	=215	=215	=215
0E]	.	0G]	.	0e	.	1r	.
.	.	.	.	.	.	1g	i-
=216	=216	=216	=216	=216	=216	=216	=216
0r	.	0r	.	1r	.	2a	-pse
.	.	.	.	.	.	2b	ge-
.	.	.	.	1c	i-	1cc	-rit
=217	=217	=217	=217	=217	=217	=217	=217
0r	.	0r	.	2d	-pse	1b	cu-
.	.	.	.	2e	ge-	.	.
.	.	.	.	1f	-rit	1a	-ram
=218	=218	=218	=218	=218	=218	=218	=218
0r	.	0r	.	1e	cu-	1cc	Chri-
.	.	.	.	1d	-ram	2b	-stus
.	.	.	.	.	.	2b	u-
=219	=219	=219	=219	=219	=219	=219	=219
0r	.	0r	.	1f	Chri-	1a	-bi-
.	.	.	.	2e	-stus	2g	-que
.	.	.	.	2e	u-	2e	tu-
=220	=220	=220	=220	=220	=220	=220	=220
0r	.	0r	.	1d	-bi-	1f	.
.	.	.	.	2c	-que	2e	-i,
.	.	.	.	2A	tu-	2a	u-
=221	=221	=221	=221	=221	=221	=221	=221
0r	.	1G	i-	2B	.	2g	-bi-
.	.	.	.	1e	.	2e	-que
.	.	2A	-pse	.	.	1f	tu-
.	.	2B	ge-	2d	.	.	.
=222	=222	=222	=222	=222	=222	=222	=222
1C	i-	1c	-rit	1e	.	2e	.
.	.	.	.	.	.	1a	.
2D	-pse	1B	cu-	2d	.	.	.
2E	ge-	.	.	2G	.	2g#i	.
=223	=223	=223	=223	=223	=223	=223	=223
1F	-rit	1A	-ram	2.c	.	1a	-i.
.	.	.	.	4d	.	.	.
1E	cu-	1c	Chri-	1e	-i.	1r	.
=224	=224	=224	=224	=224	=224	=224	=224
1D	-ram	2B	-stus	0r	.	0r	.
.	.	2B	u-	.	.	.	.
1F	Chri-	1A	-bi-	.	.	.	.
=225	=225	=225	=225	=225	=225	=225	=225
2E	-stus	2G	-que	1r	.	0r	.
2E	u-	2E	tu-	.	.	.	.
1D	-bi-	1F	.	1d	Nunc	.	.
=226	=226	=226	=226	=226	=226	=226	=226
2C	-que	2E	.	2e	e-	0r	.
2AA	tu-	1A	.	2c	-go	.	.
1BB	.	.	.	1d	prae-	.	.
.	.	2G#i	.	.	.	.	.
=227	=227	=227	=227	=227	=227	=227	=227
1AA	-i.	0A	-i.	1c	-ces-	1r	.
2r	.	.	.	2A	-si,	1a	Nunc
2A	Nunc	.	.	2c	prae-	.	.
=228	=228	=228	=228	=228	=228	=228	=228
2G	e-	1r	.	2d	.	2b	e-
2E	-go	.	.	1e	.	2g	-go
1F	prae-	1A	Nunc	.	.	1a	prae-
.	.	.	.	2d	.	.	.
=229	=229	=229	=229	=229	=229	=229	=229
1E	-ces-	2B	e-	2e	.	1g	-ces-
.	.	2G	-go	2B	.	.	.
4AA	-si,	1A	prae-	1c	-ces-	1e	-si,
4BB	.	.	.	.	.	.	.
4C	.	.	.	.	.	.	.
4D	.	.	.	.	.	.	.
=230	=230	=230	=230	=230	=230	=230	=230
1E	.	1G	-ces-	1B	-si,	1r	.
1r	.	1E	-si,	2r	.	1g	tu
.	.	.	.	2e	tu	.	.
=231	=231	=231	=231	=231	=231	=231	=231
1r	.	1r	.	1A	po-	1a	po-
1E	tu	1G	tu	2e	-ne	2b	-ne
.	.	.	.	2e	se-	2b	se-
=232	=232	=232	=232	=232	=232	=232	=232
1AA	po-	1A	po-	1c	-que-	1cc	-que-
2E	-ne	2B	-ne	2g	-ris	2b	-ris
2G	se-	2B	se-	2d	et	2b	et
=233	=233	=233	=233	=233	=233	=233	=233
1F	-que-	1c	-que-	1f	am-	1a	am-
1G	.	2B	-ris	1d	-bos	1g	-bos
.	.	2B	et	.	.	.	.
=234	=234	=234	=234	=234	=234	=234	=234
1D	-ris	1A	am-	1f	u-	1a	u-
1r	.	1G	-bos	2e	-na	2b	-na
.	.	.	.	2d	fi-	2b	fi-
=235	=235	=235	=235	=235	=235	=235	=235
1F	… u-	1A	u-	1c	-des,	1cc	-des,
2E	-na	2B	-na	1r	.	1r	.
2D	fi-	2B	fi-	.	.	.	.
=236	=236	=236	=236	=236	=236	=236	=236
1C	-des,	1c	-des,	2.c	pi-	1cc	pi-
.	.	.	.	4c	-e-	.	.
1r	.	1r	.	1G	-tas	1b	-e-
=237	=237	=237	=237	=237	=237	=237	=237
0r	.	0r	.	1d	iun-	0a	-tas
.	.	.	.	4A	-get	.	.
.	.	.	.	4B	.	.	.
.	.	.	.	4c	.	.	.
.	.	.	.	4d	.	.	.
=238	=238	=238	=238	=238	=238	=238	=238
2.C	pi-	1c	pi-	1e	.	0g	iun-
4C	-e-	.	.	.	.	.	.
1GG	-tas	1B	-e-	2r	.	.	.
.	.	.	.	2d	et	.	.
=239	=239	=239	=239	=239	=239	=239	=239
1D	iun-	0A	-tas	1d	u-	1f	-get
4AA	-get	.	.	2c	-nus	1e	et
4BB	.	.	.	.	.	.	.
4C	.	.	.	2c	a-	.	.
4D	.	.	.	.	.	.	.
=240	=240	=240	=240	=240	=240	=240	=240
0E	.	0G	iun-	1B	-mor,	0g	u-
.	.	.	.	2r	.	.	.
.	.	.	.	2B	et	.	.
=241	=241	=241	=241	=241	=241	=241	=241
1r	.	1F	-get	1c	u-	1a	-nus
1AA	et	1E	et	2c	-nus	1a	a-
.	.	.	.	2c	a-	.	.
=242	=242	=242	=242	=242	=242	=242	=242
1E	u-	0G	u-	2B	-mor,	0b	-mor.
.	.	.	.	2.e	a-	.	.
2E	-nus	.	.	.	.	.	.
.	.	.	.	4f	.	.	.
2E	a-	.	.	4g	.	.	.
.	.	.	.	4e	.	.	.
=243	=243	=243	=243	=243	=243	=243	=243
2D	.	1A	-nus	2f	.	1r	.
4C	.	.	.	4e	.	.	.
4BB	.	.	.	4d	.	.	.
1AA	.	1A	a-	1c	.	1e	Cae-
=244	=244	=244	=244	=244	=244	=244	=244
0GG	-mor.	0B	-mor.	1d	-mor.	2g	-li-
.	.	.	.	.	.	2g	-ti-
.	.	.	.	1r	.	1g	-bus
=245	=245	=245	=245	=245	=245	=245	=245
1r	.	1r	.	1A	Cae-	1a	si-
1AA	Cae-	1E	Cae-	2e	-li-	1cc	-mul
.	.	.	.	2e	-ti-	.	.
=246	=246	=246	=246	=246	=246	=246	=246
2E	-li-	2G	-li-	1e	-bus	1b	im-
2E	-ti-	2G	-ti-	.	.	.	.
1E	-bus	1G	-bus	1B	si-	1g	-mi-
=247	=247	=247	=247	=247	=247	=247	=247
1AA	si-	1A	si-	2c	-mul	1e	-xti
.	.	.	.	2c	im-	.	.
2A	-mul	1c	-mul	4c	-mi-	1e	vi-
.	.	.	.	4d	.	.	.
2A	im-	.	.	4e	.	.	.
.	.	.	.	4c	.	.	.
=248	=248	=248	=248	=248	=248	=248	=248
2.G	-mi-	1B	im-	4d	.	1g	-ve-
.	.	.	.	4c	.	.	.
.	.	.	.	4B	.	.	.
4F	.	.	.	4A	.	.	.
4E	.	1G	-mi-	1B	-xti	2g	-mus
4D	.	.	.	.	.	.	.
2E	.	.	.	.	.	2g	et
=249	=249	=249	=249	=249	=249	=249	=249
1AA	-xti	1E	-xti	2c	vi-	1a	u-
.	.	.	.	2A	-ve-	.	.
1AA	vi-	1E	vi-	1e	-mus	1cc	-na
=250	=250	=250	=250	=250	=250	=250	=250
1E	-ve-	1G	-ve-	2e	et	1b	no-
.	.	.	.	2e	un-	.	.
2E	-mus	2G	-mus	1B	-a	1g	-bis-
2E	et	2G	et	.	.	.	.
=251	=251	=251	=251	=251	=251	=251	=251
1AA	un-	1A	un-	2c	no-	1e	-cum
.	.	.	.	2c	-bis-	.	.
2A	-a	1c	-a	4c	-cum	2e	li-
.	.	.	.	4d	.	.	.
2A	no-	.	.	4e	.	2e	-be-
.	.	.	.	4c	.	.	.
=252	=252	=252	=252	=252	=252	=252	=252
1G	-bis-	1B	no-	2d	.	0g	-ri
.	.	.	.	1B	.	.	.
2E	-cum	1G	-bis-	.	.	.	.
[2C	li-	.	.	[2e	li-	.	.
=253	=253	=253	=253	=253	=253	=253	=253
4C]	.	1E	-cum	4e]	.	0r	.
4BB	.	.	.	4d	.	.	.
4AA	.	.	.	4c	.	.	.
4GG	.	.	.	4B	.	.	.
2AA	.	2E	li-	2c	.	.	.
2AA	-be-	2E	-be-	2c	-be-	.	.
=254	=254	=254	=254	=254	=254	=254	=254
0GG	-ri	0G	-ri	1B	-ri	1g	prae-
.	.	.	.	1r	.	2g	-mi-
.	.	.	.	.	.	2g	-a
=255	=255	=255	=255	=255	=255	=255	=255
0r	.	0r	.	1d	prae-	1f	di-
.	.	.	.	2d	-mi-	2f	-gna
.	.	.	.	2d	-a	2f	fe-
=256	=256	=256	=256	=256	=256	=256	=256
0r	.	0r	.	1c	di-	0e	-rent,
.	.	.	.	2c	-gna	.	.
.	.	.	.	2c	fe-	.	.
=257	=257	=257	=257	=257	=257	=257	=257
1G	prae-	1r	.	0B	-rent:	1b	prae-
2G	-mi-	1d	prae-	.	.	2b	-mi-
2G	-a	.	.	.	.	2b	-a
=258	=258	=258	=258	=258	=258	=258	=258
1F	di-	2d	-mi-	0r	.	1a	di-
.	.	2d	-a	.	.	.	.
2F	-gna	1c	di-	.	.	2a	-gna
2F	fe-	.	.	.	.	2a	fe-
=259	=259	=259	=259	=259	=259	=259	=259
0E	-rent:	2c	-gna	2.e	qua-	1g	-rent:
.	.	2c	fe-	.	.	.	.
.	.	.	.	4e	-re	.	.
.	.	[1B	-rent:	2e	a-	1r	.
.	.	.	.	2e	-ge	.	.
=260	=260	=260	=260	=260	=260	=260	=260
0r	.	1B]	.	1d	ne	2.b	qua-
.	.	.	.	.	.	4b	-re
.	.	1r	.	1e	tan-	2b	a-
.	.	.	.	.	.	2b	-ge
=261	=261	=261	=261	=261	=261	=261	=261
0r	.	0r	.	1A	-to	1a	ne
.	.	.	.	1d	tur-	1b	tan-
=262	=262	=262	=262	=262	=262	=262	=262
0r	.	0r	.	1c	-bes	1e	-to
.	.	.	.	2f	me-	1a	tur-
.	.	.	.	2f	-a	.	.
=263	=263	=263	=263	=263	=263	=263	=263
0r	.	0r	.	1e	gau-	1g	-bes
.	.	.	.	2c	-di-	2cc	me-
.	.	.	.	2c	-a	2cc	-a
=264	=264	=264	=264	=264	=264	=264	=264
0r	.	0r	.	2d	lu-	1b	gau-
.	.	.	.	2.e	.	.	.
.	.	.	.	.	.	2g	-di-
.	.	.	.	4B	.	.	.
.	.	.	.	2e	.	2g	-a
=265	=265	=265	=265	=265	=265	=265	=265
0r	.	0r	.	2d	.	2a	lu-
.	.	.	.	2B	.	1b	.
.	.	.	.	1c	.	.	.
.	.	.	.	.	.	2a	.
=266	=266	=266	=266	=266	=266	=266	=266
2.E	qua-	0r	.	1B	-ctu,	2.b	.
4E	-re	.	.	.	.	4g	.
2E	a-	.	.	1e	.	1g	-ctu,
2E	-ge	.	.	.	.	.	.
=267	=267	=267	=267	=267	=267	=267	=267
1D	ne	2.B	qua-	0r	.	0r	.
.	.	4B	-re	.	.	.	.
1E	tan-	2B	a-	.	.	.	.
.	.	2B	-ge	.	.	.	.
=268	=268	=268	=268	=268	=268	=268	=268
1AA	-to	1A	ne	0r	.	0r	.
1D	tur-	1B	tan-	.	.	.	.
=269	=269	=269	=269	=269	=269	=269	=269
1C	-bes	1E	-to	0r	.	0r	.
2F	me-	1A	tur-	.	.	.	.
2F	-a	.	.	.	.	.	.
=270	=270	=270	=270	=270	=270	=270	=270
1E	gau-	1G	-bes	0r	.	0r	.
2C	-di-	2c	me-	.	.	.	.
2C	-a	2c	-a	.	.	.	.
=271	=271	=271	=271	=271	=271	=271	=271
2D	lu-	1B	gau-	0r	.	0r	.
2.E	.	.	.	.	.	.	.
.	.	2G	-di-	.	.	.	.
4BB	.	.	.	.	.	.	.
2E	.	2G	-a	.	.	.	.
=272	=272	=272	=272	=272	=272	=272	=272
2D	.	2A	lu-	0r	.	1r	.
2BB	.	1B	.	.	.	.	.
1C	.	.	.	.	.	1ee	sed
.	.	2A	.	.	.	.	.
=273	=273	=273	=273	=273	=273	=273	=273
1BB	-ctu,	2.B	.	0r	.	1dd	lae-
.	.	4G	.	.	.	.	.
1E	.	1G	-ctu,	.	.	1b	-tus
=274	=274	=274	=274	=274	=274	=274	=274
0r	.	0r	.	1a	sed	2cc	va-
.	.	.	.	.	.	2cc	-le-
.	.	.	.	1g	lae-	1b	-as
=275	=275	=275	=275	=275	=275	=275	=275
0r	.	0r	.	1e	-tus	1ee	et
.	.	.	.	2f	va-	2cc	me-
.	.	.	.	2f	-le-	2dd	-mor
=276	=276	=276	=276	=276	=276	=276	=276
0r	.	0r	.	1e	-as	1g	us-
.	.	.	.	1a	et	2cc	-que
.	.	.	.	.	.	2cc	me-
=277	=277	=277	=277	=277	=277	=277	=277
0r	.	0r	.	2f	me-	2a	.
.	.	.	.	2g	-mor	2b	.
.	.	.	.	1c	us-	2e	.
.	.	.	.	.	.	2a	.
=278	=278	=278	=278	=278	=278	=278	=278
1r	.	1r	.	2d	-que	2f	.
.	.	.	.	2e	me-	2g	.
1A	sed	2r	.	2A	.	2c	-i,
.	.	2c	sed	2e	.	2cc	sed
=279	=279	=279	=279	=279	=279	=279	=279
1G	lae-	2d	lae-	2g	.	1b	lae-
.	.	2B	-tus	2d	-i,	.	.
1E	-tus	2c	va-	2r	.	1g	-tus
.	.	2B	-le-	[2e	[et	.	.
=280	=280	=280	=280	=280	=280	=280	=280
2F	va-	1A	-as	2e]	.	2a	va-
2F	-le-	.	.	2d	me-	2a	-le-
1E	-as	2r	.	2e	-mor	1g	-as
.	.	[2e	et	2B	us-	.	.
=281	=281	=281	=281	=281	=281	=281	=281
1A	et	2e]	.	2c	.	1cc	et
.	.	2c	me-	2e	-que	.	.
2F	me-	2d	-mor	2f	me-	2a	me-
2G	-mor	[2G	us-	2d	-i,]	2b	-mor
=282	=282	=282	=282	=282	=282	=282	=282
1C	us-	2G]	.	2r	.	2e	us-
.	.	2c	-que	2e	me-	2a	-que
2D	-que	2A	me-	2d	.	2f	me-
2E	me-	2G	.	2B	-i,	2g	.
=283	=283	=283	=283	=283	=283	=283	=283
1AA	-i,	1A	-i,	2r	.	1c	-i,
.	.	.	.	2e	sed	.	.
1A	sed	2r	.	4e	lae-	1cc	sed
.	.	.	.	4d	.	.	.
.	.	2c	sed	4e	.	.	.
.	.	.	.	4f	.	.	.
=284	=284	=284	=284	=284	=284	=284	=284
1G	lae-	2d	lae-	2g	.	1b	lae-
.	.	2B	-tus	2d	-tus	.	.
1E	-tus	2c	va-	2r	.	1g	-tus
.	.	2B	-le-	[2e	va-	.	.
=285	=285	=285	=285	=285	=285	=285	=285
2F	va-	1A	-as	2e]	.	2a	va-
2F	-le-	.	.	2d	-le-	2a	-le-
1E	-as	2r	.	2e	-as	1g	-as
.	.	[2e	et	2B	et	.	.
=286	=286	=286	=286	=286	=286	=286	=286
1A	et	2e]	.	2c	me-	1cc	et
.	.	2c	me-	2e	-mor	.	.
2F	me-	2d	-mor	2f	us-	2a	me-
2G	-mor	[2G	us-	2d	-que	2b	-mor
=287	=287	=287	=287	=287	=287	=287	=287
1C	us-	2G]	.	2r	.	2e	us-
.	.	2c	-que	2e	me-	2a	-que
2D	-que	2A	me-	2d	.	2f	me-
2E	me-	2G	.	2B	-i,	2g	.
=288	=288	=288	=288	=288	=288	=288	=288
[0AAl	-i.	[0Al	-i.	2r	.	1c	-i,
.	.	.	.	1e	me-	.	.
.	.	.	.	.	.	1r	.
.	.	.	.	2c	.	.	.
=289	=289	=289	=289	=289	=289	=289	=289
0AA_	.	0A_	.	1c	-i,	2r	.
.	.	.	.	.	.	1e	me-
.	.	.	.	1r	.	.	.
.	.	.	.	.	.	2c	.
=290	=290	=290	=290	=290	=290	=290	=290
0AA_	.	0A_	.	2r	.	1c	-i.
.	.	.	.	1e	me-	.	.
.	.	.	.	.	.	1r	.
.	.	.	.	2c	.	.	.
=291	=291	=291	=291	=291	=291	=291	=291
00AA]	.	00A]	.	00cl	-i.	00el	-i.
==	==	==	==	==	==	==	==
*-	*-	*-	*-	*-	*-	*-	*-
!!!system-decoration: [*]
!!!RDF**kern: i = editorial accidental
!!!RDF**kern: l = terminal long
!!!!PTL: <i> New Senfl Edition: Motets for Four Voices (N-V) </i>
!!!PPR: Hollitzer Verlag
!!!PC#: Denkmäler der Tonkunst in Österreich 163.2
!!!PDT: 2022
!!!PED: Scott Lee Edwards, Stefan Gasch, and Sonja Tröster
!!!YEC: Copyright 2022 Denkmäler der Tonkunst in Österreich
!!!YEM: CC-BY-NC 4.0 (https://creativecommons.org/licenses/by-nc/4.0/legalcode)
!!!EED: Benjamin Ory
!!!EEV: 2024/12/24
!!!verovio: header encoded
!!!header-left: @{PTL}\n@{PED}, eds.\n@{PC#} (@{PDT})&nbsp;\n
!!!header-right:
!!!header-center:
